storage/app/icons/phosphoricons/thin/lock-key-thin.svg

<svg xmlns="http://www.w3.org/2000/svg" fill="currentColor" viewBox="0 0 256 256"><path d="M208 84h-36V56a44 44 0 0 0-88 0v28H48a12 12 0 0 0-12 12v112a12 12 0 0 0 12 12h160a12 12 0 0 0 12-12V96a12 12 0 0 0-12-12M92 56a36 36 0 0 1 72 0v28H92Zm120 152a4 4 0 0 1-4 4H48a4 4 0 0 1-4-4V96a4 4 0 0 1 4-4h160a4 4 0 0 1 4 4Zm-84-92a24 24 0 0 0-4 47.66V184a4 4 0 0 0 8 0v-20.34a24 24 0 0 0-4-47.66m0 40a16 16 0 1 1 16-16 16 16 0 0 1-16 16"/></svg>

<svg xmlns="http://www.w3.org/2000/svg" viewBox="0 0 256 256" fill="currentColor"><path d="M208,84H172V56a44,44,0,0,0-88,0V84H48A12,12,0,0,0,36,96V208a12,12,0,0,0,12,12H208a12,12,0,0,0,12-12V96A12,12,0,0,0,208,84ZM92,56a36,36,0,0,1,72,0V84H92ZM212,208a4,4,0,0,1-4,4H48a4,4,0,0,1-4-4V96a4,4,0,0,1,4-4H208a4,4,0,0,1,4,4Zm-84-92a24,24,0,0,0-4,47.66V184a4,4,0,0,0,8,0V163.66A24,24,0,0,0,128,116Zm0,40a16,16,0,1,1,16-16A16,16,0,0,1,128,156Z"/></svg>
